src/css/fonts/SVGs/socials/twitter.svg

<?xml version="1.0" encoding="UTF-8"?>
<svg xmlns="http://www.w3.org/2000/svg" xmlns:xlink="http://www.w3.org/1999/xlink" width="48pt" height="48pt" viewBox="0 0 48 48" version="1.1">
<g id="surface1">
<path style=" stroke:none;fill-rule:nonzero;fill:black;fill-opacity:1;" d="M 42.691406 14.664062 C 42.722656 15.046875 42.722656 15.425781 42.722656 15.808594 C 42.722656 27.40625 33.367188 40.773438 16.273438 40.773438 C 11.007812 40.773438 6.117188 39.332031 2 36.832031 C 2.75 36.914062 3.46875 36.941406 4.246094 36.941406 C 8.589844 36.941406 12.589844 35.554688 15.785156 33.191406 C 11.699219 33.113281 8.273438 30.585938 7.09375 27.109375 C 7.667969 27.1875 8.246094 27.242188 8.847656 27.242188 C 9.683594 27.242188 10.519531 27.136719 11.296875 26.945312 C 7.035156 26.128906 3.839844 22.597656 3.839844 18.332031 L 3.839844 18.226562 C 5.078125 18.875 6.519531 19.285156 8.042969 19.339844 C 5.539062 17.761719 3.898438 15.074219 3.898438 12.03125 C 3.898438 10.402344 4.359375 8.90625 5.164062 7.601562 C 9.742188 12.925781 16.621094 16.40625 24.332031 16.785156 C 24.1875 16.132812 24.101562 15.453125 24.101562 14.773438 C 24.101562 9.9375 28.246094 6 33.398438 6 C 36.074219 6 38.492188 7.058594 40.1875 8.769531 C 42.289062 8.390625 44.304688 7.65625 46.089844 6.652344 C 45.398438 8.691406 43.929688 10.402344 42.003906 11.488281 C 43.871094 11.296875 45.6875 10.808594 47.355469 10.128906 C 46.089844 11.867188 44.507812 13.417969 42.691406 14.664062 Z M 42.691406 14.664062 "/>
</g>
</svg>

<svg xmlns="http://www.w3.org/2000/svg" viewBox="0 0 48 48">
  <path d="M42.691 14.664c.032.383.032.762.032 1.145 0 11.597-9.356 24.964-26.45 24.964-5.265 0-10.156-1.441-14.273-3.941.75.082 1.469.11 2.246.11 4.344 0 8.344-1.387 11.54-3.75-4.087-.079-7.513-2.606-8.692-6.083a12.91 12.91 0 0 0 1.754.133c.836 0 1.672-.105 2.449-.297-4.262-.816-7.457-4.347-7.457-8.613v-.105a9.858 9.858 0 0 0 4.203 1.113c-2.504-1.578-4.145-4.266-4.145-7.309a8.36 8.36 0 0 1 1.266-4.43c4.578 5.325 11.457 8.805 19.168 9.184a9.343 9.343 0 0 1-.23-2.012C24.102 9.938 28.246 6 33.398 6c2.676 0 5.094 1.059 6.79 2.77a18.983 18.983 0 0 0 5.902-2.118c-.692 2.04-2.16 3.75-4.086 4.836a19.553 19.553 0 0 0 5.351-1.36 19.283 19.283 0 0 1-4.664 4.536Zm0 0"/>
</svg>
